lib/preview/nrk-logo-preview-nrk-sapmi-title-below-on-dark.svg

<svg width="48" height="35" viewBox="0 0 48 35" fill="none" xmlns="http://www.w3.org/2000/svg">
<path d="M0 12.9927V0.993766H3.93719V12.9927H0ZM9.29381 2.90346L11.5581 12.9927H7.24917L4.54549 0.993766H6.96218C7.51635 0.986574 8.05406 1.18192 8.4745 1.54307C8.89562 1.88906 9.18495 2.36937 9.29381 2.90346ZM12.1495 12.9927V0.993766H16.0867V12.9927H12.1495ZM19.0605 5.55678C18.6362 5.56091 18.2188 5.44991 17.8525 5.23564C17.4912 5.0268 17.1911 4.72663 16.9823 4.36527C16.7678 3.99901 16.6568 3.58144 16.661 3.15699C16.6561 2.73514 16.7672 2.32006 16.9823 1.9571C17.1933 1.59967 17.4931 1.30277 17.8525 1.0952C18.2189 0.881178 18.6362 0.77019 19.0605 0.77406C19.4822 0.769518 19.8971 0.880605 20.2602 1.0952C20.616 1.30459 20.9127 1.60124 21.122 1.9571C21.3368 2.32016 21.4479 2.73517 21.4433 3.15699C21.4473 3.5814 21.3363 3.9989 21.122 4.36527C20.9149 4.72505 20.6179 5.02496 20.2602 5.23564C19.8971 5.45065 19.4819 5.56177 19.0599 5.55678H19.0605ZM22.0516 12.9927V0.993766H25.9892V12.9927H22.0516ZM30.9737 7.55091C30.9848 7.56255 31.0693 7.70056 31.2272 7.96495C31.3851 8.22934 31.5906 8.56736 31.8439 8.97896C32.0974 9.39038 32.3649 9.82693 32.6463 10.2887C32.9278 10.7504 33.1926 11.187 33.4408 11.5985C33.6881 12.0099 33.9697 12.4746 34.2857 12.9927H29.9598C29.6893 12.5533 29.4441 12.1561 29.2245 11.8012C29.0048 11.4463 28.7713 11.0633 28.5238 10.652C28.2758 10.2412 28.0306 9.84121 27.7882 9.45214C27.5458 9.06307 27.3375 8.72229 27.1633 8.42973C26.9883 8.13699 26.8671 7.9398 26.7997 7.83821C26.6325 7.58612 26.5336 7.29497 26.5127 6.99322C26.5294 6.70361 26.6226 6.42365 26.7828 6.18179C26.8504 6.06912 26.9743 5.8691 27.1545 5.58181C27.3348 5.29451 27.546 4.95373 27.7882 4.5594C28.0304 4.16507 28.2756 3.76228 28.5238 3.35105C28.772 2.93982 29.0056 2.55391 29.2245 2.19338C29.4445 1.83323 29.6897 1.43326 29.9598 0.993491H34.2857L30.9396 6.45217C30.8361 6.61424 30.7777 6.80102 30.7706 6.99322C30.7818 7.195 30.8522 7.38899 30.9731 7.55091H30.9737Z" fill="white"/>
<path d="M7.29072 24.5099C7.04696 24.2583 6.76416 24.0489 6.45358 23.8901C6.12799 23.723 5.78912 23.5839 5.4406 23.4742C5.08305 23.361 4.71472 23.2647 4.33559 23.1853C4.04501 23.1175 3.77436 23.0497 3.52359 22.9818C3.29311 22.9215 3.06881 22.839 2.85383 22.7353C2.66904 22.6466 2.49731 22.5324 2.34349 22.3958C2.19859 22.2663 2.08648 22.1033 2.01669 21.9206C1.93941 21.7058 1.90253 21.4783 1.90789 21.2497C1.90412 21.013 1.94091 20.7775 2.01669 20.5536C2.08541 20.3561 2.2003 20.1784 2.35153 20.0357C2.50832 19.8902 2.68634 19.77 2.87924 19.6795C3.09972 19.5776 3.33372 19.5089 3.57379 19.4757C3.85948 19.4344 4.14779 19.4146 4.43635 19.4163C4.69909 19.4168 4.9616 19.4309 5.22294 19.4585C5.48743 19.4865 5.75023 19.529 6.01014 19.5861C6.26247 19.6416 6.51125 19.7125 6.75518 19.7983C6.98357 19.8779 7.20486 19.9773 7.41655 20.0952L7.65098 18.6013C7.41291 18.4754 7.16335 18.373 6.90588 18.2957C6.64338 18.2167 6.37833 18.1486 6.11063 18.0917C5.83953 18.0349 5.56564 17.9925 5.29018 17.9646C5.01113 17.9363 4.72656 17.9222 4.43635 17.9222C3.84429 17.9157 3.25373 17.984 2.67834 18.1256C2.18842 18.2456 1.72548 18.4589 1.3141 18.7541C0.934921 19.0299 0.629807 19.3975 0.426678 19.8235C0.209943 20.3023 0.104035 20.8249 0.116974 21.3516C0.107387 21.7591 0.172663 22.1649 0.3095 22.5483C0.429498 22.8697 0.614787 23.1619 0.853356 23.406C1.08952 23.6448 1.36063 23.8452 1.65705 24.0002C1.97143 24.1645 2.29923 24.301 2.63678 24.408C2.98838 24.5212 3.34831 24.6174 3.71666 24.6967C4.01803 24.7644 4.29707 24.8351 4.5538 24.9089C4.79254 24.9756 5.02498 25.0636 5.24835 25.172C5.44051 25.2641 5.61833 25.3842 5.77606 25.5286C5.92556 25.6711 6.04259 25.8449 6.11901 26.038C6.20792 26.2706 6.25066 26.5186 6.24484 26.768C6.24925 27.0332 6.20965 27.2972 6.12766 27.5491C6.05419 27.7669 5.9405 27.9685 5.79275 28.1433C5.64425 28.3156 5.46174 28.4543 5.257 28.5505C5.02571 28.6586 4.78048 28.733 4.52866 28.7715C4.2213 28.8193 3.91069 28.8421 3.59975 28.8394C3.29746 28.8387 2.9955 28.8188 2.69564 28.78C2.38311 28.7404 2.07046 28.6865 1.75774 28.6184C1.4498 28.5519 1.14533 28.4697 0.845521 28.3723C0.549359 28.2766 0.267513 28.1776 0 28.0754L0.217665 29.7563C0.503074 29.8643 0.793681 29.9577 1.08833 30.0362C1.35574 30.1073 1.62669 30.164 1.90006 30.2059C2.16236 30.2454 2.42477 30.2765 2.68726 30.2993C2.94975 30.3221 3.21472 30.3335 3.48223 30.3333C4.08163 30.337 4.67967 30.2744 5.26566 30.1465C5.7843 30.0362 6.27817 29.8289 6.722 29.5353C7.13629 29.2573 7.47126 28.8738 7.69335 28.4232C7.93778 27.8894 8.05525 27.305 8.0363 26.7168C8.04548 26.2786 7.98046 25.8421 7.84405 25.4262C7.727 25.0838 7.53824 24.7712 7.29072 24.5099Z" fill="#9FDAF5"/>
<path d="M17.3113 29.0771C17.1889 29.0885 17.0656 29.0697 16.9518 29.0224C16.8381 28.9751 16.7373 28.9007 16.658 28.8055C16.5028 28.5334 16.4383 28.2178 16.4741 27.9056L16.5073 24.408C16.511 24.0413 16.466 23.6758 16.3734 23.3214C16.2922 23.0104 16.1561 22.7169 15.9716 22.4552C15.7853 22.1994 15.5488 21.9855 15.277 21.827C14.961 21.6453 14.6194 21.5137 14.2641 21.4367C13.8296 21.3416 13.3859 21.296 12.9414 21.3009C12.5887 21.3006 12.2363 21.3232 11.8863 21.3685C11.5558 21.4109 11.2286 21.4762 10.9069 21.5641C10.6085 21.646 10.315 21.7453 10.0278 21.8612L9.82694 23.3044C10.106 23.2028 10.3714 23.1179 10.6223 23.0497C10.8731 22.9815 11.1161 22.9252 11.3505 22.8799C11.5803 22.8355 11.8124 22.8044 12.0457 22.7868C12.2741 22.7698 12.5001 22.7612 12.7235 22.761C13.0649 22.7537 13.4057 22.7937 13.7364 22.8799C13.9778 22.9412 14.1998 23.064 14.3813 23.2367C14.5429 23.4046 14.6583 23.6124 14.7161 23.8395C14.7876 24.1194 14.8214 24.4078 14.8166 24.6969L14.8146 25.1228L12.858 25.2572C12.1886 25.2761 11.5292 25.4259 10.9158 25.6983C10.4568 25.9021 10.0604 26.2276 9.76863 26.6407C9.52108 27.0083 9.38973 27.4435 9.39195 27.8886C9.38883 28.3063 9.48964 28.7182 9.68517 29.0859C9.8899 29.4635 10.198 29.7729 10.5723 29.977C11.0291 30.2179 11.5395 30.3349 12.054 30.3166C12.5361 30.3278 13.016 30.2472 13.4688 30.0791C13.8603 29.9238 14.2185 29.6932 14.5236 29.4C14.6396 29.2875 14.7496 29.1687 14.8531 29.0443C14.8856 29.2202 14.947 29.3893 15.0346 29.5446C15.1837 29.8045 15.413 30.0074 15.6872 30.1219C15.9904 30.2454 16.3149 30.306 16.6416 30.3001C16.7423 30.3001 16.8397 30.297 16.9345 30.2917C17.0277 30.286 17.1202 30.2717 17.2108 30.2489C17.3001 30.2263 17.381 30.2068 17.4536 30.1895C17.5192 30.1748 17.5836 30.1549 17.6461 30.1301L17.8303 28.9928C17.738 29.0249 17.6427 29.0476 17.546 29.0607C17.4682 29.071 17.3898 29.0765 17.3113 29.0771ZM14.5233 28.3131C14.3418 28.4586 14.1453 28.584 13.9373 28.6869C13.73 28.789 13.5106 28.8632 13.2844 28.9076C13.0499 28.9533 12.8116 28.976 12.5728 28.9752C12.3 28.9833 12.0287 28.9312 11.7778 28.8224C11.5734 28.7327 11.4009 28.5817 11.2836 28.3897C11.1676 28.1862 11.1097 27.954 11.1162 27.7191C11.1 27.4359 11.1766 27.1552 11.3341 26.9208C11.5163 26.7051 11.7632 26.556 12.037 26.4964C12.4648 26.3944 12.9037 26.3488 13.343 26.3608H14.8091L14.8018 28.0459C14.7166 28.1427 14.6234 28.2323 14.5233 28.3131Z" fill="#9FDAF5"/>
<path d="M15.5865 17.26H13.7786L12.3554 20.2992H13.6616L15.5865 17.26Z" fill="#9FDAF5"/>
<path d="M25.8582 21.8357C25.2573 21.4626 24.5616 21.2767 23.8574 21.3009C23.4395 21.303 23.0234 21.3571 22.6185 21.4619C22.1808 21.5749 21.759 21.7433 21.3628 21.963C21.2841 22.0063 21.2062 22.0544 21.1281 22.1031V21.3178L19.4206 21.5895V33.712H21.1281V29.9107C21.1395 29.9155 21.1501 29.9209 21.1619 29.926C21.4712 30.0561 21.7942 30.1501 22.1246 30.2062C22.5147 30.2714 22.9096 30.3027 23.3049 30.2995C24.0587 30.3127 24.802 30.119 25.4561 29.739C26.0986 29.3529 26.6208 28.791 26.9629 28.1178C27.3581 27.315 27.5507 26.4254 27.5235 25.5285C27.5393 24.7703 27.3939 24.0175 27.0969 23.3213C26.835 22.7147 26.4045 22.1985 25.8582 21.8357ZM25.4145 27.5151C25.2134 27.9659 24.8763 28.3404 24.4518 28.5844C23.98 28.8351 23.4523 28.958 22.9199 28.9413C22.6648 28.9414 22.41 28.9215 22.158 28.8815C21.8936 28.8389 21.6332 28.7737 21.3795 28.6866C21.2992 28.6583 21.2121 28.626 21.1283 28.5949V23.2367C21.1507 23.2262 21.1735 23.2127 21.1956 23.2025C21.4411 23.0893 21.67 22.993 21.8821 22.9136C22.0829 22.8375 22.2903 22.7806 22.5016 22.7438C22.6895 22.711 22.8798 22.6939 23.0705 22.6928C23.5868 22.6754 24.0991 22.7893 24.5609 23.0239C24.9645 23.2468 25.2806 23.6033 25.4564 24.0339C25.6693 24.5849 25.7691 25.1742 25.7497 25.7657C25.7674 26.3668 25.653 26.9644 25.4145 27.5151Z" fill="#9FDAF5"/>
<path d="M41.169 21.6575C40.7125 21.4061 40.198 21.283 39.6789 21.3009C39.2283 21.2997 38.7808 21.3772 38.3562 21.5301C37.9249 21.6867 37.5187 21.9069 37.1507 22.1835C36.9422 22.3403 36.7438 22.5104 36.5566 22.6929C36.3851 22.2678 36.0825 21.9104 35.6941 21.6741C35.2319 21.4217 34.7118 21.2988 34.1872 21.3179C33.7395 21.318 33.295 21.3954 32.8729 21.5468C32.4397 21.7015 32.0309 21.9189 31.6591 22.1923C31.5388 22.28 31.4221 22.3753 31.3075 22.4752V21.319L29.5997 21.5737V30.1479H31.3075V23.6878C31.5086 23.5541 31.7184 23.4343 31.9353 23.329C32.2009 23.2015 32.4786 23.1019 32.7641 23.0316C33.0271 22.9659 33.2969 22.9318 33.5678 22.93C33.8165 22.9223 34.0642 22.9656 34.296 23.0573C34.4878 23.1397 34.6573 23.2678 34.79 23.4306C34.9354 23.62 35.0357 23.8409 35.083 24.0761C35.1483 24.3799 35.1792 24.6902 35.1751 25.0011V30.1459H36.8828V24.6445C36.884 24.3198 36.8624 23.9953 36.8181 23.6737C37.0117 23.5449 37.2122 23.427 37.4186 23.3205C37.6796 23.1871 37.9549 23.0845 38.239 23.0149C38.5075 22.9481 38.7829 22.9137 39.0594 22.9127C39.3053 22.9068 39.55 22.9501 39.7794 23.0404C39.9746 23.1209 40.1471 23.2493 40.2816 23.4139C40.4272 23.603 40.5276 23.8239 40.5746 24.0591C40.6399 24.363 40.6708 24.6734 40.6667 24.9844V30.1459H42.3744V24.6279C42.396 23.9857 42.2937 23.3455 42.0731 22.7432C41.8993 22.2893 41.5811 21.9073 41.169 21.6575Z" fill="#9FDAF5"/>
<path d="M44.9026 30.1468H46.6104V21.3179L44.9026 21.5726V30.1468Z" fill="#9FDAF5"/>
<path d="M46.7778 18.1851C46.6784 18.0109 46.5373 17.8649 46.3676 17.7606C46.1938 17.653 45.9937 17.5971 45.79 17.5996C45.5838 17.5978 45.3811 17.6535 45.204 17.7606C45.0294 17.8642 44.8827 18.0101 44.777 18.1851C44.6708 18.3614 44.6157 18.5645 44.618 18.7711C44.6163 18.9802 44.6713 19.1858 44.777 19.3653C44.8793 19.5431 45.0267 19.6897 45.204 19.7898C45.3828 19.8919 45.5849 19.9446 45.79 19.9426C45.9926 19.9453 46.1921 19.8925 46.3676 19.7898C46.54 19.6889 46.6818 19.5421 46.7778 19.3653C46.8784 19.184 46.9304 18.9791 46.9285 18.7711C46.931 18.5656 46.8789 18.3632 46.7778 18.1851Z" fill="#9FDAF5"/>
</svg>

<svg xmlns="http://www.w3.org/2000/svg" viewBox="0 0 48 35"><path fill="#fff" d="M0 12.993v-12h3.937v12H0Zm9.294-10.09 2.264 10.09H7.25l-2.704-12h2.417a2.276 2.276 0 0 1 1.513.55c.42.346.71.826.819 1.36Zm2.855 10.09v-12h3.938v12h-3.938Zm6.912-7.436a2.382 2.382 0 0 1-2.4-2.4 2.301 2.301 0 0 1 .321-1.2 2.41 2.41 0 0 1 3.278-.862c.356.21.653.506.862.862.215.363.326.778.321 1.2a2.35 2.35 0 0 1-.321 1.208 2.4 2.4 0 0 1-.862.87 2.302 2.302 0 0 1-1.2.322Zm2.99 7.436v-12h3.938v12h-3.937Zm8.923-5.442c.01.012.095.15.253.414s.364.602.617 1.014a312.764 312.764 0 0 1 1.597 2.62c.247.41.529.876.845 1.394H29.96c-.27-.44-.516-.837-.736-1.192-.22-.355-.453-.738-.7-1.149-.248-.41-.493-.81-.736-1.2-.242-.389-.45-.73-.625-1.022-.175-.293-.296-.49-.363-.592a1.747 1.747 0 0 1-.287-.845c.016-.29.11-.57.27-.811.067-.113.191-.313.371-.6s.392-.628.634-1.023c.242-.394.488-.797.736-1.208l.7-1.158.736-1.2h4.326l-3.346 5.46a1.08 1.08 0 0 0-.17.54c.012.202.082.396.203.558Z"/><path fill="#9FDAF5" d="M7.29 24.51a3.184 3.184 0 0 0-.836-.62 6.478 6.478 0 0 0-1.013-.416c-.358-.113-.726-.21-1.105-.289a23.87 23.87 0 0 1-.812-.203 3.693 3.693 0 0 1-.67-.247 2.206 2.206 0 0 1-.51-.34 1.222 1.222 0 0 1-.327-.474 1.854 1.854 0 0 1-.11-.671 2.069 2.069 0 0 1 .11-.696c.068-.198.183-.376.335-.518.156-.146.334-.266.527-.357.22-.101.455-.17.695-.203a5.79 5.79 0 0 1 .862-.06 7.627 7.627 0 0 1 1.574.17c.252.056.501.127.745.212.229.08.45.18.662.297l.234-1.494a4.141 4.141 0 0 0-.745-.305 9.902 9.902 0 0 0-.795-.204 7.867 7.867 0 0 0-.82-.127 8.458 8.458 0 0 0-.855-.043 7.033 7.033 0 0 0-1.758.204c-.49.12-.953.333-1.364.628-.38.276-.684.643-.887 1.07a3.498 3.498 0 0 0-.31 1.528c-.01.407.056.813.193 1.196.12.322.305.614.543.858.237.239.508.44.804.594.314.165.642.301.98.408.351.113.711.21 1.08.289.301.067.58.138.837.212.239.067.471.155.694.263.193.092.37.212.528.357.15.142.267.316.343.509.089.233.132.48.126.73.004.265-.035.53-.117.781-.074.218-.188.42-.335.594a1.613 1.613 0 0 1-.536.407 2.675 2.675 0 0 1-.728.221c-.308.048-.618.071-.93.068-.302 0-.604-.02-.903-.059-.313-.04-.626-.094-.938-.162a9.32 9.32 0 0 1-.912-.246A17.128 17.128 0 0 1 0 28.075l.218 1.681c.285.108.576.202.87.28.268.071.539.128.812.17.262.04.525.07.787.093.263.023.528.035.795.034.6.004 1.198-.059 1.784-.186a4.237 4.237 0 0 0 1.456-.612c.414-.278.75-.661.971-1.112a3.805 3.805 0 0 0 .343-1.706 3.88 3.88 0 0 0-.192-1.29 2.515 2.515 0 0 0-.553-.917ZM17.311 29.077a.754.754 0 0 1-.653-.272 1.478 1.478 0 0 1-.184-.9l.033-3.497a4.134 4.134 0 0 0-.134-1.087 2.677 2.677 0 0 0-.401-.866 2.282 2.282 0 0 0-.695-.628 3.533 3.533 0 0 0-1.013-.39 5.883 5.883 0 0 0-1.323-.136c-.352 0-.705.022-1.055.068-.33.042-.657.107-.98.195a8.025 8.025 0 0 0-.878.297l-.201 1.443a10.005 10.005 0 0 1 1.524-.424c.23-.044.461-.076.695-.093.228-.017.454-.026.678-.026.34-.007.682.033 1.012.119.242.061.464.184.645.357.162.168.277.375.335.603.072.28.105.568.1.857l-.001.426-1.957.134a5.142 5.142 0 0 0-1.942.441c-.46.204-.856.53-1.147.943a2.215 2.215 0 0 0-.377 1.248c-.003.417.098.83.293 1.197.205.378.513.687.887.891.457.24.968.358 1.482.34a3.81 3.81 0 0 0 1.415-.238c.391-.155.75-.386 1.055-.679.116-.112.226-.231.33-.356.032.176.093.345.18.5.15.26.379.463.653.578.303.123.628.184.955.178.1 0 .198-.003.293-.008a1.51 1.51 0 0 0 .276-.043l.243-.06c.065-.014.13-.034.192-.059l.184-1.137a1.464 1.464 0 0 1-.284.068 1.9 1.9 0 0 1-.235.016Zm-2.788-.764a3.22 3.22 0 0 1-.586.374 2.62 2.62 0 0 1-.653.22 3.656 3.656 0 0 1-.711.068 1.86 1.86 0 0 1-.795-.153 1.096 1.096 0 0 1-.494-.432 1.283 1.283 0 0 1-.168-.67c-.016-.284.06-.565.218-.8.182-.215.43-.364.703-.424a5.037 5.037 0 0 1 1.306-.135h1.466l-.007 1.685a2.275 2.275 0 0 1-.279.267ZM15.586 17.26H13.78l-1.424 3.04h1.307l1.924-3.04ZM25.858 21.836a3.56 3.56 0 0 0-2-.535 5.045 5.045 0 0 0-1.24.16 5.344 5.344 0 0 0-1.49.642v-.785l-1.707.271v12.123h1.707v-3.801l.034.015c.31.13.632.224.963.28.39.065.785.097 1.18.093a4.137 4.137 0 0 0 2.151-.56 4.008 4.008 0 0 0 1.507-1.621 5.487 5.487 0 0 0 .56-2.59 5.343 5.343 0 0 0-.426-2.207 3.4 3.4 0 0 0-1.239-1.485Zm-.444 5.68c-.2.45-.538.824-.962 1.068-.472.251-1 .374-1.532.357a4.7 4.7 0 0 1-1.792-.346v-5.358c.023-.01.046-.024.068-.034.245-.114.474-.21.686-.29a3.389 3.389 0 0 1 1.188-.22 3.062 3.062 0 0 1 1.49.33c.405.224.72.58.896 1.01.213.552.313 1.141.294 1.733a4.1 4.1 0 0 1-.335 1.75ZM41.169 21.657a2.882 2.882 0 0 0-1.49-.356 3.873 3.873 0 0 0-1.323.23 4.645 4.645 0 0 0-1.205.652 6.123 6.123 0 0 0-.594.51 2.12 2.12 0 0 0-.863-1.019 2.921 2.921 0 0 0-1.507-.356c-.447 0-.892.077-1.314.229a4.74 4.74 0 0 0-1.565.928V21.32l-1.708.255v8.574h1.707v-6.46a5.37 5.37 0 0 1 .628-.359 4.28 4.28 0 0 1 .83-.297c.262-.066.532-.1.803-.102.248-.008.496.036.728.127a1.3 1.3 0 0 1 .494.374c.145.189.246.41.293.645.065.304.096.614.092.925v5.145h1.708v-5.502c.001-.324-.02-.649-.065-.97.194-.13.394-.247.6-.354.262-.133.537-.236.821-.305a3.45 3.45 0 0 1 .82-.102c.246-.006.491.037.72.127.196.08.368.21.503.374.145.189.246.41.293.645.065.304.096.614.092.925v5.162h1.707v-5.518a4.993 4.993 0 0 0-.3-1.885 2.18 2.18 0 0 0-.905-1.085ZM44.903 30.147h1.707v-8.83l-1.707.256v8.574ZM46.778 18.185a1.19 1.19 0 0 0-.41-.424 1.072 1.072 0 0 0-.578-.161 1.113 1.113 0 0 0-.586.16c-.175.104-.321.25-.427.425-.106.176-.161.38-.159.586-.002.21.053.415.159.594a1.159 1.159 0 0 0 1.013.577 1.114 1.114 0 0 0 .988-.577c.1-.181.152-.386.15-.594a1.159 1.159 0 0 0-.15-.586Z"/></svg>
